src/status/symbolic/audio-volume-muted-rtl-symbolic.svg

<svg width="16px" height="16px" version="1.1" viewBox="0 0 16 16" xmlns="http://www.w3.org/2000/svg">
 <path d="m3.2614 1.291c0.37563 0.026826 0.62454 0.48828 0.2832 0.86914-1.6202 1.5104-2.5416 3.6249-2.5449 5.8398 0.0026 2.2205 0.92792 4.3401 2.5547 5.8516 0.44531 0.47165-0.18064 1.1484-0.67774 0.72852-1.8304-1.6992-2.8725-4.0825-2.877-6.5801 0.0026-2.4925 1.0386-4.8722 2.8613-6.5723 0.13636-0.10693 0.27518-0.14566 0.40039-0.13672zm2.3906 1.416c0.39562 0.011891 0.64227 0.53363 0.25586 0.91406-1.2147 1.1326-1.9056 2.7181-1.9082 4.3789 0.0019 1.6654 0.69596 3.2551 1.916 4.3887 0.46835 0.44623-0.17346 1.1467-0.67969 0.72852-1.423-1.3216-2.233-3.1751-2.2363-5.1172 0.0019-1.9383 0.8074-3.789 2.2246-5.1113 0.14685-0.13372 0.29586-0.1856 0.42774-0.18164zm4.3477 0.29297 3 3h2c0.554 0 1 0.446 1 1v2c0 0.554-0.446 1-1 1h-2l-3 3zm-2.0176 1.1836c0.37603 0.016385 0.64465 0.51365 0.29102 0.89648-0.81045 0.75501-1.2715 1.8123-1.2734 2.9199 0.00128 1.1103 0.464 2.1701 1.2773 2.9258 0.47259 0.42993-0.13957 1.1522-0.67969 0.73047-1.0168-0.94425-1.5955-2.2686-1.5977-3.6562 0.00172-1.3844 0.57742-2.7062 1.5898-3.6504 0.13024-0.12342 0.26724-0.17148 0.39258-0.16602z" fill="#363636" fill-rule="evenodd" opacity=".5" style="paint-order:normal"/>
</svg>

<svg xmlns="http://www.w3.org/2000/svg" width="16" height="16">
    <path fill="#050505" fill-opacity=".7" fill-rule="evenodd" d="M3.261 1.291c.376.027.625.488.284.87A8 8 0 0 0 1 8a8 8 0 0 0 2.554 5.852c.446.471-.18 1.148-.677.728A9 9 0 0 1 0 8 9 9 0 0 1 2.86 1.428a.579.579 0 0 1 .4-.137zm2.391 1.416c.396.012.642.534.256.914A6 6 0 0 0 4 8a6 6 0 0 0 1.916 4.389c.468.446-.174 1.146-.68.728A7 7 0 0 1 3 8a7 7 0 0 1 2.224-5.111c.147-.134.296-.186.428-.182zM10 3l3 3h2c.554 0 1 .446 1 1v2c0 .554-.446 1-1 1h-2l-3 3zM7.982 4.184c.376.016.645.513.291.896A4 4 0 0 0 7 8a4 4 0 0 0 1.277 2.926c.473.43-.14 1.152-.68.73A5 5 0 0 1 6 8a5 5 0 0 1 1.59-3.65.536.536 0 0 1 .392-.166z" opacity=".5" style="paint-order:normal"/>
</svg>
